X:286
T: ES GINGEN DREI BAURN
N: E0161
O: Europa, Mitteleuropa, Deutschland
R: erzaehlendes Volks - Lied, Sage, Tier - Maerchen
M: 3/4
L: 1/4
K: F
F | FFG | A2
F | AAB | c2
F | FFG | A2
F | AAB | c2
c | ccc | cB
A | BAG | F2

@@@ Tune index: 3936
